tenants/donaldduck/icons/add.svg

<svg fill="none" height="24" viewBox="0 0 24 24" width="24" xmlns="http://www.w3.org/2000/svg"><path d="m10.421 20.421c0 .4188.1663.8204.4625 1.1165.2961.2961.6977.4625 1.1165.4625s.8204-.1664 1.1165-.4625.4625-.6977.4625-1.1165v-6.841h6.842c.4188 0 .8204-.1664 1.1165-.4625s.4625-.6977.4625-1.1165-.1664-.8204-.4625-1.1165c-.2961-.2962-.6977-.4625-1.1165-.4625h-6.841v-6.84202c0-.41878-.1664-.82041-.4625-1.11653-.2961-.29611-.6977-.46247-1.1165-.46247s-.8204.16636-1.1165.46247c-.2962.29612-.4625.69775-.4625 1.11653v6.84202h-6.84202c-.41878 0-.82041.1663-1.11653.4625-.29611.2961-.46247.6977-.46247 1.1165s.16636.8204.46247 1.1165c.29612.2961.69775.4625 1.11653.4625h6.84202v6.842z" fill="#000"/></svg>

<svg width="24" height="24" viewBox="0 0 24 24" fill="none" xmlns="http://www.w3.org/2000/svg">
<path d="M10.421 20.421C10.421 20.8398 10.5873 21.2414 10.8835 21.5375C11.1796 21.8336 11.5812 22 12 22C12.4188 22 12.8204 21.8336 13.1165 21.5375C13.4126 21.2414 13.579 20.8398 13.579 20.421V13.58H20.421C20.8398 13.58 21.2414 13.4136 21.5375 13.1175C21.8336 12.8214 22 12.4198 22 12.001C22 11.5822 21.8336 11.1806 21.5375 10.8845C21.2414 10.5883 20.8398 10.422 20.421 10.422H13.58V3.57998C13.58 3.1612 13.4136 2.75957 13.1175 2.46345C12.8214 2.16734 12.4198 2.00098 12.001 2.00098C11.5822 2.00098 11.1806 2.16734 10.8845 2.46345C10.5883 2.75957 10.422 3.1612 10.422 3.57998V10.422H3.57998C3.1612 10.422 2.75957 10.5883 2.46345 10.8845C2.16734 11.1806 2.00098 11.5822 2.00098 12.001C2.00098 12.4198 2.16734 12.8214 2.46345 13.1175C2.75957 13.4136 3.1612 13.58 3.57998 13.58H10.422V20.422L10.421 20.421Z" fill="black"/>
</svg>
